src/symbols/av-symbol/1F3A6.svg

<svg id="emoji" viewBox="0 0 72 72" xmlns="http://www.w3.org/2000/svg">
  <g id="grid">
    <path fill="#b3b3b3" d="M68,4V68H4V4H68m4-4H0V72H72V0Z"/>
    <path fill="none" stroke="#00a5ff" stroke-miterlimit="10" stroke-width="0.1" d="M12.923,10.9583H59.0769A1.9231,1.9231,0,0,1,61,12.8814V59.0352a1.9231,1.9231,0,0,1-1.9231,1.9231H12.9231A1.9231,1.9231,0,0,1,11,59.0352V12.8813A1.923,1.923,0,0,1,12.923,10.9583Z"/>
    <rect x="16" y="4" rx="2.2537" width="40" height="64" fill="none" stroke="#00a5ff" stroke-miterlimit="10" stroke-width="0.1"/>
    <rect x="16" y="4" rx="2.2537" width="40" height="64" transform="translate(72) rotate(90)" fill="none" stroke="#00a5ff" stroke-miterlimit="10" stroke-width="0.1"/>
    <circle cx="36" cy="36" r="29" fill="none" stroke="#00a5ff" stroke-miterlimit="10" stroke-width="0.1"/>
  </g>
  <g id="color">
    <path fill="#d0cfce" stroke="none" stroke-linecap="round" stroke-linejoin="round" stroke-miterlimit="10" stroke-width="2" d="M47,50.8423l10.5433,8.5936C58.5268,60.2376,60,59.5378,60,58.2689v-25.121c0-1.2688-1.4732-1.9686-2.4567-1.167l-10.8349,8.8313"/>
    <circle cx="19.1667" cy="20.1667" r="7.1458" fill="#d0cfce" stroke="none" stroke-linejoin="round" stroke-miterlimit="10" stroke-width="2"/>
    <circle cx="39.5625" cy="20.1667" r="7.1458" fill="#d0cfce" stroke="none" stroke-linejoin="round" stroke-miterlimit="10" stroke-width="2"/>
    <path fill="#d0cfce" stroke="none" stroke-linejoin="round" stroke-miterlimit="10" stroke-width="2" d="M43.9771,59.4167 H15.0229c-1.6695,0-3.0229-1.3534-3.0229-3.0229V35.0229C12,33.3534,13.3534,32,15.0229,32h28.9543 C45.6466,32,47,33.3534,47,35.0229v21.3709C47,58.0633,45.6466,59.4167,43.9771,59.4167z"/>
  </g>
  <g id="hair"/>
  <g id="skin"/>
  <g id="skin-shadow"/>
  <g id="line">
    <path fill="none" stroke="#000000" stroke-linecap="round" stroke-linejoin="round" stroke-miterlimit="10" stroke-width="2" d="M47,50.8423l10.5433,8.5936C58.5268,60.2376,60,59.5378,60,58.2689v-25.121c0-1.2688-1.4732-1.9686-2.4567-1.167l-10.8349,8.8313"/>
    <circle cx="19.1667" cy="20.1667" r="7.1458" fill="none" stroke="#000000" stroke-linejoin="round" stroke-miterlimit="10" stroke-width="2"/>
    <circle cx="39.5625" cy="20.1667" r="7.1458" fill="none" stroke="#000000" stroke-linejoin="round" stroke-miterlimit="10" stroke-width="2"/>
    <path fill="none" stroke="#000000" stroke-linejoin="round" stroke-miterlimit="10" stroke-width="2" d="M43.9771,59.4167 H15.0229c-1.6695,0-3.0229-1.3534-3.0229-3.0229V35.0229C12,33.3534,13.3534,32,15.0229,32h28.9543 C45.6466,32,47,33.3534,47,35.0229v21.3709C47,58.0633,45.6466,59.4167,43.9771,59.4167z"/>
  </g>
</svg>

<svg viewBox="0 0 72 72" xmlns="http://www.w3.org/2000/svg"><path fill="#b3b3b3" d="M68 4v64H4V4h64m4-4H0v72h72V0z"/><path fill="none" stroke="#00a5ff" stroke-miterlimit="10" stroke-width=".1" d="M12.923 10.958h46.154A1.923 1.923 0 0161 12.881v46.154a1.923 1.923 0 01-1.923 1.923H12.923A1.923 1.923 0 0111 59.035V12.881a1.923 1.923 0 011.923-1.923z"/><rect x="16" y="4" rx="2.254" width="40" height="64" fill="none" stroke="#00a5ff" stroke-miterlimit="10" stroke-width=".1"/><rect x="16" y="4" rx="2.254" width="40" height="64" transform="rotate(90 36 36)" fill="none" stroke="#00a5ff" stroke-miterlimit="10" stroke-width=".1"/><circle cx="36" cy="36" r="29" fill="none" stroke="#00a5ff" stroke-miterlimit="10" stroke-width=".1"/><g stroke-linecap="round" stroke-miterlimit="10" stroke-width="6" stroke="#fff" fill="none" stroke-linejoin="round"><path d="M47 50.842l10.543 8.594c.984.802 2.457.102 2.457-1.167V33.148c0-1.269-1.473-1.969-2.457-1.167l-10.835 8.831"/><circle cx="19.167" cy="20.167" r="7.146"/><circle cx="39.563" cy="20.167" r="7.146"/><path d="M43.977 59.417H15.023A3.023 3.023 0 0112 56.394V35.023A3.023 3.023 0 0115.023 32h28.954A3.023 3.023 0 0147 35.023v21.37a3.023 3.023 0 01-3.023 3.024z"/></g><g fill="#d0cfce"><path d="M47 50.842l10.543 8.594c.984.802 2.457.102 2.457-1.167V33.148c0-1.269-1.473-1.969-2.457-1.167l-10.835 8.831"/><circle cx="19.167" cy="20.167" r="7.146"/><circle cx="39.563" cy="20.167" r="7.146"/><path d="M43.977 59.417H15.023A3.023 3.023 0 0112 56.394V35.023A3.023 3.023 0 0115.023 32h28.954A3.023 3.023 0 0147 35.023v21.37a3.023 3.023 0 01-3.023 3.024z"/></g><g fill="none" stroke="#000" stroke-linejoin="round" stroke-miterlimit="10" stroke-width="2"><path stroke-linecap="round" d="M47 50.842l10.543 8.594c.984.802 2.457.102 2.457-1.167V33.148c0-1.269-1.473-1.969-2.457-1.167l-10.835 8.831"/><circle cx="19.167" cy="20.167" r="7.146"/><circle cx="39.563" cy="20.167" r="7.146"/><path d="M43.977 59.417H15.023A3.023 3.023 0 0112 56.394V35.023A3.023 3.023 0 0115.023 32h28.954A3.023 3.023 0 0147 35.023v21.37a3.023 3.023 0 01-3.023 3.024z"/></g></svg>
